X:1
T:Donkey Riding
M:2/4
L:1/8
K:Eb
 E3/2 F/2 GG| AF G2| GF FE| GF F2| E F/2F/2 G G/2G/2| AF G2| EC D=B,|\
 C2 C2| c2 B G/2G/2| AA G2| GF FE| GF FE| c2 B G/2G/2| AA G3/2- F/2|\
 EC D=B,| C2 C2|
